X:98
T:Banks of Allen,The. RH.098
R:Jig
S:Rev.R.Harrison’s MS,c1815,Cumbria
O:England
A:Temple Sowerby,Cumbria
Z:vmp.Simon Wilson. Review PJH, 2008.
M:6/8
L:1/8
Q:3/8=120
K:D
|:A|FGF FED|FAA A2d|Bcc Add|\
” bar missing in MS”Bcc Add|!
FGF FED|FAA A2d|BdB AGF|GEE E2:|!
|:g|fgf fed|faa a2g|fgf fed|fbb bag|!
fga efg|def fed|BdB AGF|GEE E2:|

